ci/cil-mouse.svg

<svg xmlns="http://www.w3.org/2000/svg" viewBox="0 0 512 512" height="1em" width="1em">
  <path fill="var(--ci-primary-color, currentColor)" d="M448 80a24.027 24.027 0 0 0 24-24V16h-32v32H264a24.027 24.027 0 0 0-24 24v40h-31.375A88.725 88.725 0 0 0 120 200.625v159.946C120 435.247 180.753 496 255.429 496h1.142C331.247 496 392 435.247 392 360.571V200.625A88.725 88.725 0 0 0 303.375 112H272V80ZM152 200.625A56.689 56.689 0 0 1 208.625 144H240v88h-88Zm208 159.946A103.545 103.545 0 0 1 256.571 464h-1.142A103.545 103.545 0 0 1 152 360.571V264h208ZM303.375 144A56.689 56.689 0 0 1 360 200.625V232h-88v-88Z" class="ci-primary"/>
</svg>

<svg xmlns="http://www.w3.org/2000/svg" viewBox="0 0 512 512" height="1em" width="1em">
  <path fill="var(--ci-primary-color, currentColor)" d="M448,80a24.027,24.027,0,0,0,24-24V16H440V48H264a24.027,24.027,0,0,0-24,24v40H208.625A88.725,88.725,0,0,0,120,200.625V360.571C120,435.247,180.753,496,255.429,496h1.142C331.247,496,392,435.247,392,360.571V200.625A88.725,88.725,0,0,0,303.375,112H272V80ZM152,200.625A56.689,56.689,0,0,1,208.625,144H240v88H152ZM360,360.571A103.545,103.545,0,0,1,256.571,464h-1.142A103.545,103.545,0,0,1,152,360.571V264H360ZM303.375,144A56.689,56.689,0,0,1,360,200.625V232H272V144Z" class="ci-primary"/>
</svg>
